svg/trip_curve.svg

<svg xmlns="http://www.w3.org/2000/svg" width="24" height="24" viewBox="0 0 24 24"><path d="M17.73 19a2.13 2.13 0 0 0-.73-.73V14.5h-4v-1.77A2 2 0 0 0 12 9a1.81 1.81 0 0 0-.52.07L7.93 5.52A1.81 1.81 0 0 0 8 5a2 2 0 0 0-1-1.73V2H5v1.27A2 2 0 0 0 6 7a1.81 1.81 0 0 0 .52-.07l3.55 3.55A1.81 1.81 0 0 0 10 11a2 2 0 0 0 1 1.73v3.77h4v1.77A2 2 0 1 0 17.73 21H19v-2zM6 6a1 1 0 1 1 1-1 1 1 0 0 1-1 1zm6 6a1 1 0 1 1 1-1 1 1 0 0 1-1 1zm4 9a1 1 0 1 1 1-1 1 1 0 0 1-1 1z" fill-rule="evenodd"/><path fill="none" d="M0 0h24v24H0z"/></svg>

<svg xmlns="http://www.w3.org/2000/svg" width="24" height="24" viewBox="0 0 24 24"><path d="M17.73,19a2.13,2.13,0,0,0-.73-.73V14.5H13V12.73A2,2,0,0,0,12,9a1.81,1.81,0,0,0-.52.07L7.93,5.52A1.81,1.81,0,0,0,8,5,2,2,0,0,0,7,3.27V2H5V3.27A2,2,0,0,0,6,7a1.81,1.81,0,0,0,.52-.07l3.55,3.55A1.81,1.81,0,0,0,10,11a2,2,0,0,0,1,1.73V16.5h4v1.77A2,2,0,1,0,17.73,21H19V19ZM6,6A1,1,0,1,1,7,5,1,1,0,0,1,6,6Zm6,6a1,1,0,1,1,1-1A1,1,0,0,1,12,12Zm4,9a1,1,0,1,1,1-1A1,1,0,0,1,16,21Z" fill-rule="evenodd"/><rect width="24" height="24" fill="none"/></svg>
